img/illustrations/sign-in.svg

<svg id="Layer_1" xmlns="http://www.w3.org/2000/svg" viewBox="0 0 160 160">
	<style>
		.st0{fill:#bde5ed}
		.st1{fill:none;stroke:#bde5ed;stroke-width:5.3337}
		.st1,.st2{stroke-miterlimit:10}
		.st2{fill:#e2f3f7;stroke:#28bcd3;stroke-width:1.7264}
		.st3{fill:#28bcd3}
		.st4{fill:none;stroke:#28bcd3;stroke-width:.799;stroke-miterlimit:10}
	</style>
	<path class="st0" d="M8 72.7h69.3c.7 0 .7-1.1 0-1.1H8c-.7 0-.7 1.1 0 1.1zM33.6 62.9c27-1.6 54-2.2 81 .1.7.1.7-1 0-1.1-27-2.2-54-1.7-81-.1-.7 0-.7 1.1 0 1.1zM75.2 56.7H154c.7 0 .7-1.1 0-1.1H75.2c-.7 0-.7 1.1 0 1.1zM16 48.5c22.8.6 45.5.3 68.3-.7.7 0 .7-1.1 0-1.1-22.7 1-45.5 1.3-68.3.7-.7.1-.7 1.1 0 1.1zM22.4 33.7H80c.7 0 .7-1.1 0-1.1H22.4c-.7.1-.7 1.1 0 1.1zM43.2 20.5c19.9-.5 39.9-.1 59.8 1.3.7 0 .7-1 0-1.1-19.9-1.4-39.8-1.8-59.8-1.3-.7 0-.7 1.1 0 1.1zM79.4 29.4h52.5c.7 0 .7-1.1 0-1.1H79.4c-.6.1-.6 1.1 0 1.1zM59.2 40.1c27.1.7 54.3 0 81.4-2 .7 0 .7-1.1 0-1.1-27.1 2-54.2 2.6-81.4 2-.7 0-.7 1 0 1.1zM6.9 56c19.4.7 38.8.3 58.2-1.2.7-.1.7-1.1 0-1.1-19.4 1.5-38.8 1.9-58.2 1.2-.7 0-.7 1.1 0 1.1zM4.8 77.9c20.8.2 41.6.2 62.4-.2.7 0 .7-1.1 0-1.1-20.8.4-41.6.5-62.4.3-.7 0-.7 1 0 1zM76.2 68.7l80.5-1.2c.7 0 .7-1.1 0-1.1l-80.5 1.2c-.6 0-.6 1.1 0 1.1zM125.8 61.5h29.9c.7 0 .7-1.1 0-1.1h-29.9c-.6 0-.6 1.1 0 1.1zM99.7 45.5c15.9-.1 31.8-.8 47.7 0 .7 0 .7-1 0-1.1-15.9-.9-31.8-.1-47.7 0-.7 0-.7 1.1 0 1.1zM51.2 40.1H13.9c-.7 0-.7 1.1 0 1.1h37.3c.7 0 .7-1.1 0-1.1zM66.1 24.1H27.7c-.7 0-.7 1.1 0 1.1h38.4c.7 0 .7-1.1 0-1.1zM112 22.5h12.5c.7 0 .7-1.1 0-1.1H112c-.7.1-.7 1.1 0 1.1zM47.4 13.5h48c.7 0 .7-1.1 0-1.1h-48c-.6 0-.6 1.1 0 1.1zM76.8 7.6h17.6c.7 0 .7-1.1 0-1.1H76.8c-.7 0-.7 1.1 0 1.1zM100.8 16.7h16c.7 0 .7-1.1 0-1.1h-16c-.7 0-.7 1.1 0 1.1zM38.9 66.3H5.8c-.7 0-.7 1.1 0 1.1h33.1c.7-.1.7-1.1 0-1.1zM22.4 60.9H4.3c-.7 0-.7 1.1 0 1.1h18.1c.7 0 .7-1.1 0-1.1zM84.8 79.1h71.6c.7 0 .7-1.1 0-1.1H84.8c-.7 0-.7 1.1 0 1.1zM118.4 71.6H152c.7 0 .7-1.1 0-1.1h-33.6c-.7 0-.7 1.1 0 1.1zM36.8 83.9H5.6c-.7 0-.7 1.1 0 1.1h31.2c.7-.1.7-1.1 0-1.1zM106.6 84.4c.7 0 .7-1.1 0-1.1-.6 0-.6 1.1 0 1.1zM46.9 83.5c.7 0 .7-1.1 0-1.1s-.7 1.1 0 1.1zM114.6 84.4h41.7c.7 0 .7-1.1 0-1.1h-41.7c-.6 0-.6 1.1 0 1.1zM148.2 92.4H99.7c-.7 0-.7 1.1 0 1.1h48.5c.7 0 .7-1.1 0-1.1zM92.2 91.3H37.8c-.7 0-.7 1.1 0 1.1h54.4c.7 0 .7-1.1 0-1.1zM29.8 91.3H6.1c-.7 0-.7 1.1 0 1.1h23.7c.7 0 .7-1.1 0-1.1zM7 98.8h59.6c.7 0 .7-1.1 0-1.1H7c-.7 0-.7 1.1 0 1.1zM83.2 101.4c13.3-.6 26.7-.7 40-.4.7 0 .7-1.1 0-1.1-13.3-.3-26.7-.1-40 .4-.7.1-.7 1.1 0 1.1zM137.6 98.8h16.8c.7 0 .7-1.1 0-1.1h-16.8c-.7 0-.7 1.1 0 1.1zM149.8 105.7h-42.1c-.7 0-.7 1.1 0 1.1h42.1c.7 0 .7-1.1 0-1.1zM89 104.6c-12.8.6-25.6.3-38.4-.9-.7-.1-.7 1 0 1.1 12.8 1.1 25.6 1.4 38.4.9.7-.1.7-1.2 0-1.1zM36.8 102H8.5c-.7 0-.7 1.1 0 1.1h28.3c.7 0 .7-1.1 0-1.1zM9 109c16.9-.2 33.8 0 50.7.6.7 0 .7-1 0-1.1-16.9-.7-33.8-.9-50.7-.6-.6 0-.7 1.1 0 1.1zM78.4 111c13.9.3 27.7.2 41.6-.4.7 0 .7-1.1 0-1.1-13.9.6-27.7.7-41.6.4-.7 0-.7 1.1 0 1.1zM130.1 112.1h21.1c.7 0 .7-1.1 0-1.1h-21.1c-.7.1-.7 1.1 0 1.1zM139.7 116.9h-36.8c-.7 0-.7 1.1 0 1.1h36.8c.7 0 .7-1.1 0-1.1zM97.3 114.6c-7.7 1.2-15.5 0-23.3 0-7.9 0-15.6-.7-23.4-1.8-.7-.1-1 .9-.3 1 7.9 1.1 15.7 1.8 23.7 1.8 7.8 0 15.7 1.2 23.5 0 .7 0 .4-1.1-.2-1zM40.5 114.7c-10.1.5-20.1.4-30.2-.5-.7-.1-.7 1 0 1.1 10 .8 20.1 1 30.2.5.7-.1.7-1.2 0-1.1zM15.4 119.6c20.1-.3 40.2-.6 60.3.2.7 0 .7-1 0-1.1-20.1-.8-40.2-.6-60.3-.2-.6.1-.6 1.2 0 1.1zM73.2 126.5c14.1.3 28.5-.1 42.5-1.9.7-.1.7-1.2 0-1.1-14 1.9-28.4 2.3-42.5 1.9-.7 0-.7 1.1 0 1.1zM123.7 124.4c6.8-.2 13.7-.3 20.5-.5.7 0 .7-1.1 0-1.1-6.8.2-13.7.3-20.5.5-.7.1-.7 1.2 0 1.1zM80 130.8H32.5c-.7 0-.7 1.1 0 1.1H80c.7 0 .7-1.1 0-1.1zM62.9 123.3H22.4c-.7 0-.7 1.1 0 1.1h40.5c.7 0 .7-1.1 0-1.1zM90.6 135.6h-48c-.7 0-.7 1.1 0 1.1h48c.7 0 .7-1.1 0-1.1zM90.6 131.3H121c.7 0 .7-1.1 0-1.1H90.6c-.6.1-.6 1.1 0 1.1zM101.8 137.2h26.7c.7 0 .7-1.1 0-1.1h-26.7c-.6 0-.6 1.1 0 1.1zM127.4 129.2h12.3c.7 0 .7-1.1 0-1.1h-12.3c-.6 0-.6 1.1 0 1.1zM66.6 140.9H34.1c-.7 0-.7 1.1 0 1.1h32.5c.7 0 .7-1.1 0-1.1zM75.7 142.5h38.4c.7 0 .7-1.1 0-1.1H75.7c-.7.1-.7 1.1 0 1.1zM92.8 146.3H43.7c-.7 0-.7 1.1 0 1.1h49.1c.7-.1.7-1.1 0-1.1zM77.3 153.2h33.1c.7 0 .7-1.1 0-1.1H77.3c-.7 0-.7 1.1 0 1.1z"/>
	<circle class="st1" cx="80.5" cy="79.8" r="76.8"/>
	<g>
		<path class="st2" d="M72.3 43.7c-8.8-8.8-22.9-8.7-31.4.2-8.5 8.9-8.2 23.1.5 31.8 6.2 6.2 15 8 22.7 5.4l40.3 40.3.1.1 12.6-1.2 1.2-12.8.1-.1L77.8 67c2.6-7.9.7-17-5.5-23.3zm-26 5.6c2.4-2.5 6.3-2.5 8.7-.1 2.4 2.4 2.5 6.4.1 8.9-2.4 2.4-6.2 2.4-8.7 0-2.4-2.4-2.5-6.4-.1-8.8z"/>
		<path class="st3" d="M76.5 65.9l-.9 6.1 5.7-.9-.7 6 5.8-.7 6 5.9-.4 6.1 5.9-.8-.7 6.1 6.7-.8 4.6 4.5-1.1 6.4 5.9-1.1-.9 5.9 5.8-1.1-41.8-41.4z"/>
		<path class="st4" d="M75.9 71.7l42.1 42.1M71.1 74.7l45.7 46.2M67 78.8l43.6 43.5"/>
	</g>
</svg>

<?xml version="1.0" encoding="utf-8"?>
<!-- Generator: Adobe Illustrator 19.0.1, SVG Export Plug-In . SVG Version: 6.00 Build 0)  -->
<svg version="1.1" id="Layer_1" xmlns="http://www.w3.org/2000/svg" xmlns:xlink="http://www.w3.org/1999/xlink" x="0px" y="0px"
	 viewBox="0 0 160 160" style="enable-background:new 0 0 160 160;" xml:space="preserve">
<style type="text/css">
	.st0{fill:#BDE5ED;}
	.st1{fill:none;stroke:#BDE5ED;stroke-width:5.3337;stroke-miterlimit:10;}
	.st2{fill:#E2F3F7;stroke:#28BCD3;stroke-width:1.7264;stroke-miterlimit:10;}
	.st3{fill:#28BCD3;}
	.st4{fill:none;stroke:#28BCD3;stroke-width:0.799;stroke-miterlimit:10;}
</style>
<g>
	<g>
		<g>
			<g>
				<g>
					<path class="st0" d="M8,72.7c23.1,0,46.2,0,69.3,0c0.7,0,0.7-1.1,0-1.1c-23.1,0-46.2,0-69.3,0C7.3,71.6,7.3,72.7,8,72.7L8,72.7
						z"/>
				</g>
			</g>
			<g>
				<g>
					<path class="st0" d="M33.6,62.9c27-1.6,54-2.2,81,0.1c0.7,0.1,0.7-1,0-1.1c-27-2.2-54-1.7-81-0.1
						C32.9,61.8,32.9,62.9,33.6,62.9L33.6,62.9z"/>
				</g>
			</g>
			<g>
				<g>
					<path class="st0" d="M75.2,56.7c26.3,0,52.5,0,78.8,0c0.7,0,0.7-1.1,0-1.1c-26.3,0-52.5,0-78.8,0
						C74.5,55.6,74.5,56.7,75.2,56.7L75.2,56.7z"/>
				</g>
			</g>
			<g>
				<g>
					<path class="st0" d="M16,48.5c22.8,0.6,45.5,0.3,68.3-0.7c0.7,0,0.7-1.1,0-1.1c-22.7,1-45.5,1.3-68.3,0.7
						C15.3,47.5,15.3,48.5,16,48.5L16,48.5z"/>
				</g>
			</g>
			<g>
				<g>
					<path class="st0" d="M22.4,33.7c19.2,0,38.4,0,57.6,0c0.7,0,0.7-1.1,0-1.1c-19.2,0-38.4,0-57.6,0
						C21.7,32.7,21.7,33.7,22.4,33.7L22.4,33.7z"/>
				</g>
			</g>
			<g>
				<g>
					<path class="st0" d="M43.2,20.5c19.9-0.5,39.9-0.1,59.8,1.3c0.7,0,0.7-1,0-1.1c-19.9-1.4-39.8-1.8-59.8-1.3
						C42.5,19.4,42.5,20.5,43.2,20.5L43.2,20.5z"/>
				</g>
			</g>
			<g>
				<g>
					<path class="st0" d="M79.4,29.4c17.5,0,35,0,52.5,0c0.7,0,0.7-1.1,0-1.1c-17.5,0-35,0-52.5,0C78.8,28.4,78.8,29.4,79.4,29.4
						L79.4,29.4z"/>
				</g>
			</g>
			<g>
				<g>
					<path class="st0" d="M59.2,40.1c27.1,0.7,54.3,0,81.4-2c0.7,0,0.7-1.1,0-1.1c-27.1,2-54.2,2.6-81.4,2
						C58.5,39,58.5,40,59.2,40.1L59.2,40.1z"/>
				</g>
			</g>
			<g>
				<g>
					<path class="st0" d="M6.9,56c19.4,0.7,38.8,0.3,58.2-1.2c0.7-0.1,0.7-1.1,0-1.1c-19.4,1.5-38.8,1.9-58.2,1.2
						C6.2,54.9,6.2,56,6.9,56L6.9,56z"/>
				</g>
			</g>
			<g>
				<g>
					<path class="st0" d="M4.8,77.9c20.8,0.2,41.6,0.2,62.4-0.2c0.7,0,0.7-1.1,0-1.1C46.4,77,25.6,77.1,4.8,76.9
						C4.1,76.9,4.1,77.9,4.8,77.9L4.8,77.9z"/>
				</g>
			</g>
			<g>
				<g>
					<path class="st0" d="M76.2,68.7c26.8-0.4,53.7-0.8,80.5-1.2c0.7,0,0.7-1.1,0-1.1c-26.8,0.4-53.7,0.8-80.5,1.2
						C75.6,67.6,75.6,68.7,76.2,68.7L76.2,68.7z"/>
				</g>
			</g>
			<g>
				<g>
					<path class="st0" d="M125.8,61.5c10,0,19.9,0,29.9,0c0.7,0,0.7-1.1,0-1.1c-10,0-19.9,0-29.9,0
						C125.2,60.4,125.2,61.5,125.8,61.5L125.8,61.5z"/>
				</g>
			</g>
			<g>
				<g>
					<path class="st0" d="M99.7,45.5c15.9-0.1,31.8-0.8,47.7,0c0.7,0,0.7-1,0-1.1c-15.9-0.9-31.8-0.1-47.7,0
						C99,44.4,99,45.5,99.7,45.5L99.7,45.5z"/>
				</g>
			</g>
			<g>
				<g>
					<path class="st0" d="M51.2,40.1c-12.4,0-24.9,0-37.3,0c-0.7,0-0.7,1.1,0,1.1c12.4,0,24.9,0,37.3,0
						C51.9,41.2,51.9,40.1,51.2,40.1L51.2,40.1z"/>
				</g>
			</g>
			<g>
				<g>
					<path class="st0" d="M66.1,24.1c-12.8,0-25.6,0-38.4,0c-0.7,0-0.7,1.1,0,1.1c12.8,0,25.6,0,38.4,0
						C66.8,25.2,66.8,24.1,66.1,24.1L66.1,24.1z"/>
				</g>
			</g>
			<g>
				<g>
					<path class="st0" d="M112,22.5c4.2,0,8.3,0,12.5,0c0.7,0,0.7-1.1,0-1.1c-4.2,0-8.3,0-12.5,0C111.3,21.5,111.3,22.5,112,22.5
						L112,22.5z"/>
				</g>
			</g>
			<g>
				<g>
					<path class="st0" d="M47.4,13.5c16,0,32,0,48,0c0.7,0,0.7-1.1,0-1.1c-16,0-32,0-48,0C46.8,12.4,46.8,13.5,47.4,13.5L47.4,13.5z
						"/>
				</g>
			</g>
			<g>
				<g>
					<path class="st0" d="M76.8,7.6c5.9,0,11.7,0,17.6,0c0.7,0,0.7-1.1,0-1.1c-5.9,0-11.7,0-17.6,0C76.1,6.5,76.1,7.6,76.8,7.6
						L76.8,7.6z"/>
				</g>
			</g>
			<g>
				<g>
					<path class="st0" d="M100.8,16.7c5.3,0,10.7,0,16,0c0.7,0,0.7-1.1,0-1.1c-5.3,0-10.7,0-16,0C100.1,15.6,100.1,16.7,100.8,16.7
						L100.8,16.7z"/>
				</g>
			</g>
			<g>
				<g>
					<path class="st0" d="M38.9,66.3c-11,0-22,0-33.1,0c-0.7,0-0.7,1.1,0,1.1c11,0,22,0,33.1,0C39.6,67.3,39.6,66.3,38.9,66.3
						L38.9,66.3z"/>
				</g>
			</g>
			<g>
				<g>
					<path class="st0" d="M22.4,60.9c-6,0-12.1,0-18.1,0c-0.7,0-0.7,1.1,0,1.1c6,0,12.1,0,18.1,0C23.1,62,23.1,60.9,22.4,60.9
						L22.4,60.9z"/>
				</g>
			</g>
			<g>
				<g>
					<path class="st0" d="M84.8,79.1c23.9,0,47.7,0,71.6,0c0.7,0,0.7-1.1,0-1.1c-23.9,0-47.7,0-71.6,0C84.1,78,84.1,79.1,84.8,79.1
						L84.8,79.1z"/>
				</g>
			</g>
			<g>
				<g>
					<path class="st0" d="M118.4,71.6c11.2,0,22.4,0,33.6,0c0.7,0,0.7-1.1,0-1.1c-11.2,0-22.4,0-33.6,0
						C117.7,70.5,117.7,71.6,118.4,71.6L118.4,71.6z"/>
				</g>
			</g>
			<g>
				<g>
					<path class="st0" d="M36.8,83.9c-10.4,0-20.8,0-31.2,0c-0.7,0-0.7,1.1,0,1.1c10.4,0,20.8,0,31.2,0
						C37.5,84.9,37.5,83.9,36.8,83.9L36.8,83.9z"/>
				</g>
			</g>
			<g>
				<g>
					<path class="st0" d="M106.6,84.4c0.7,0,0.7-1.1,0-1.1C106,83.3,106,84.4,106.6,84.4L106.6,84.4z"/>
				</g>
			</g>
			<g>
				<g>
					<path class="st0" d="M46.9,83.5c0.7,0,0.7-1.1,0-1.1C46.2,82.4,46.2,83.5,46.9,83.5L46.9,83.5z"/>
				</g>
			</g>
			<g>
				<g>
					<path class="st0" d="M114.6,84.4c13.9,0,27.8,0,41.7,0c0.7,0,0.7-1.1,0-1.1c-13.9,0-27.8,0-41.7,0
						C114,83.3,114,84.4,114.6,84.4L114.6,84.4z"/>
				</g>
			</g>
			<g>
				<g>
					<path class="st0" d="M148.2,92.4c-16.2,0-32.4,0-48.5,0c-0.7,0-0.7,1.1,0,1.1c16.2,0,32.4,0,48.5,0
						C148.9,93.5,148.9,92.4,148.2,92.4L148.2,92.4z"/>
				</g>
			</g>
			<g>
				<g>
					<path class="st0" d="M92.2,91.3c-18.1,0-36.3,0-54.4,0c-0.7,0-0.7,1.1,0,1.1c18.1,0,36.3,0,54.4,0
						C92.9,92.4,92.9,91.3,92.2,91.3L92.2,91.3z"/>
				</g>
			</g>
			<g>
				<g>
					<path class="st0" d="M29.8,91.3c-7.9,0-15.8,0-23.7,0c-0.7,0-0.7,1.1,0,1.1c7.9,0,15.8,0,23.7,0C30.5,92.4,30.5,91.3,29.8,91.3
						L29.8,91.3z"/>
				</g>
			</g>
			<g>
				<g>
					<path class="st0" d="M7,98.8c19.9,0,39.8,0,59.6,0c0.7,0,0.7-1.1,0-1.1c-19.9,0-39.8,0-59.6,0C6.3,97.7,6.3,98.8,7,98.8L7,98.8
						z"/>
				</g>
			</g>
			<g>
				<g>
					<path class="st0" d="M83.2,101.4c13.3-0.6,26.7-0.7,40-0.4c0.7,0,0.7-1.1,0-1.1c-13.3-0.3-26.7-0.1-40,0.4
						C82.5,100.4,82.5,101.4,83.2,101.4L83.2,101.4z"/>
				</g>
			</g>
			<g>
				<g>
					<path class="st0" d="M137.6,98.8c5.6,0,11.2,0,16.8,0c0.7,0,0.7-1.1,0-1.1c-5.6,0-11.2,0-16.8,0
						C136.9,97.7,136.9,98.8,137.6,98.8L137.6,98.8z"/>
				</g>
			</g>
			<g>
				<g>
					<path class="st0" d="M149.8,105.7c-14,0-28.1,0-42.1,0c-0.7,0-0.7,1.1,0,1.1c14,0,28.1,0,42.1,0
						C150.5,106.8,150.5,105.7,149.8,105.7L149.8,105.7z"/>
				</g>
			</g>
			<g>
				<g>
					<path class="st0" d="M89,104.6c-12.8,0.6-25.6,0.3-38.4-0.9c-0.7-0.1-0.7,1,0,1.1c12.8,1.1,25.6,1.4,38.4,0.9
						C89.7,105.6,89.7,104.5,89,104.6L89,104.6z"/>
				</g>
			</g>
			<g>
				<g>
					<path class="st0" d="M36.8,102c-9.4,0-18.8,0-28.3,0c-0.7,0-0.7,1.1,0,1.1c9.4,0,18.8,0,28.3,0C37.5,103.1,37.5,102,36.8,102
						L36.8,102z"/>
				</g>
			</g>
			<g>
				<g>
					<path class="st0" d="M9,109c16.9-0.2,33.8,0,50.7,0.6c0.7,0,0.7-1,0-1.1c-16.9-0.7-33.8-0.9-50.7-0.6C8.4,107.9,8.3,109,9,109
						L9,109z"/>
				</g>
			</g>
			<g>
				<g>
					<path class="st0" d="M78.4,111c13.9,0.3,27.7,0.2,41.6-0.4c0.7,0,0.7-1.1,0-1.1c-13.9,0.6-27.7,0.7-41.6,0.4
						C77.7,109.9,77.7,111,78.4,111L78.4,111z"/>
				</g>
			</g>
			<g>
				<g>
					<path class="st0" d="M130.1,112.1c7,0,14,0,21.1,0c0.7,0,0.7-1.1,0-1.1c-7,0-14,0-21.1,0C129.4,111.1,129.4,112.1,130.1,112.1
						L130.1,112.1z"/>
				</g>
			</g>
			<g>
				<g>
					<path class="st0" d="M139.7,116.9c-12.3,0-24.5,0-36.8,0c-0.7,0-0.7,1.1,0,1.1c12.3,0,24.5,0,36.8,0
						C140.4,118,140.4,116.9,139.7,116.9L139.7,116.9z"/>
				</g>
			</g>
			<g>
				<g>
					<path class="st0" d="M97.3,114.6c-7.7,1.2-15.5,0-23.3,0c-7.9,0-15.6-0.7-23.4-1.8c-0.7-0.1-1,0.9-0.3,1
						c7.9,1.1,15.7,1.8,23.7,1.8c7.8,0,15.7,1.2,23.5,0C98.2,115.6,97.9,114.5,97.3,114.6L97.3,114.6z"/>
				</g>
			</g>
			<g>
				<g>
					<path class="st0" d="M40.5,114.7c-10.1,0.5-20.1,0.4-30.2-0.5c-0.7-0.1-0.7,1,0,1.1c10,0.8,20.1,1,30.2,0.5
						C41.2,115.7,41.2,114.6,40.5,114.7L40.5,114.7z"/>
				</g>
			</g>
			<g>
				<g>
					<path class="st0" d="M15.4,119.6c20.1-0.3,40.2-0.6,60.3,0.2c0.7,0,0.7-1,0-1.1c-20.1-0.8-40.2-0.6-60.3-0.2
						C14.8,118.6,14.8,119.7,15.4,119.6L15.4,119.6z"/>
				</g>
			</g>
			<g>
				<g>
					<path class="st0" d="M73.2,126.5c14.1,0.3,28.5-0.1,42.5-1.9c0.7-0.1,0.7-1.2,0-1.1c-14,1.9-28.4,2.3-42.5,1.9
						C72.5,125.4,72.5,126.5,73.2,126.5L73.2,126.5z"/>
				</g>
			</g>
			<g>
				<g>
					<path class="st0" d="M123.7,124.4c6.8-0.2,13.7-0.3,20.5-0.5c0.7,0,0.7-1.1,0-1.1c-6.8,0.2-13.7,0.3-20.5,0.5
						C123,123.4,123,124.5,123.7,124.4L123.7,124.4z"/>
				</g>
			</g>
			<g>
				<g>
					<path class="st0" d="M80,130.8c-15.8,0-31.6,0-47.5,0c-0.7,0-0.7,1.1,0,1.1c15.8,0,31.6,0,47.5,0
						C80.7,131.9,80.7,130.8,80,130.8L80,130.8z"/>
				</g>
			</g>
			<g>
				<g>
					<path class="st0" d="M62.9,123.3c-13.5,0-27,0-40.5,0c-0.7,0-0.7,1.1,0,1.1c13.5,0,27,0,40.5,0
						C63.6,124.4,63.6,123.3,62.9,123.3L62.9,123.3z"/>
				</g>
			</g>
			<g>
				<g>
					<path class="st0" d="M90.6,135.6c-16,0-32,0-48,0c-0.7,0-0.7,1.1,0,1.1c16,0,32,0,48,0C91.3,136.7,91.3,135.6,90.6,135.6
						L90.6,135.6z"/>
				</g>
			</g>
			<g>
				<g>
					<path class="st0" d="M90.6,131.3c10.1,0,20.3,0,30.4,0c0.7,0,0.7-1.1,0-1.1c-10.1,0-20.3,0-30.4,0
						C90,130.3,90,131.3,90.6,131.3L90.6,131.3z"/>
				</g>
			</g>
			<g>
				<g>
					<path class="st0" d="M101.8,137.2c8.9,0,17.8,0,26.7,0c0.7,0,0.7-1.1,0-1.1c-8.9,0-17.8,0-26.7,0
						C101.2,136.1,101.2,137.2,101.8,137.2L101.8,137.2z"/>
				</g>
			</g>
			<g>
				<g>
					<path class="st0" d="M127.4,129.2c4.1,0,8.2,0,12.3,0c0.7,0,0.7-1.1,0-1.1c-4.1,0-8.2,0-12.3,0
						C126.8,128.1,126.8,129.2,127.4,129.2L127.4,129.2z"/>
				</g>
			</g>
			<g>
				<g>
					<path class="st0" d="M66.6,140.9c-10.8,0-21.7,0-32.5,0c-0.7,0-0.7,1.1,0,1.1c10.8,0,21.7,0,32.5,0
						C67.3,142,67.3,140.9,66.6,140.9L66.6,140.9z"/>
				</g>
			</g>
			<g>
				<g>
					<path class="st0" d="M75.7,142.5c12.8,0,25.6,0,38.4,0c0.7,0,0.7-1.1,0-1.1c-12.8,0-25.6,0-38.4,0
						C75,141.5,75,142.5,75.7,142.5L75.7,142.5z"/>
				</g>
			</g>
			<g>
				<g>
					<path class="st0" d="M92.8,146.3c-16.4,0-32.7,0-49.1,0c-0.7,0-0.7,1.1,0,1.1c16.4,0,32.7,0,49.1,0
						C93.5,147.3,93.5,146.3,92.8,146.3L92.8,146.3z"/>
				</g>
			</g>
			<g>
				<g>
					<path class="st0" d="M77.3,153.2c11,0,22,0,33.1,0c0.7,0,0.7-1.1,0-1.1c-11,0-22,0-33.1,0C76.6,152.1,76.6,153.2,77.3,153.2
						L77.3,153.2z"/>
				</g>
			</g>
		</g>
		<circle class="st1" cx="80.5" cy="79.8" r="76.8"/>
	</g>
	<g>
		<path class="st2" d="M72.3,43.7c-8.8-8.8-22.9-8.7-31.4,0.2c-8.5,8.9-8.2,23.1,0.5,31.8c6.2,6.2,15,8,22.7,5.4l40.3,40.3l0.1,0.1
			l0,0l12.6-1.2l1.2-12.8l0.1-0.1L77.8,67C80.4,59.1,78.5,50,72.3,43.7z M46.3,49.3c2.4-2.5,6.3-2.5,8.7-0.1
			c2.4,2.4,2.5,6.4,0.1,8.9c-2.4,2.4-6.2,2.4-8.7,0C44,55.7,43.9,51.7,46.3,49.3z"/>
		<polygon class="st3" points="76.5,65.9 76.5,65.9 75.6,72 81.3,71.1 80.6,77.1 86.4,76.4 92.4,82.3 92,88.4 97.9,87.6 97.2,93.7 
			103.9,92.9 108.5,97.4 107.4,103.8 113.3,102.7 112.4,108.6 118.2,107.5 76.4,66.1 		"/>
		<line class="st4" x1="75.9" y1="71.7" x2="118" y2="113.8"/>
		<line class="st4" x1="71.1" y1="74.7" x2="116.8" y2="120.9"/>
		<line class="st4" x1="67" y1="78.8" x2="110.6" y2="122.3"/>
	</g>
</g>
</svg>
